X:1
T:Habanera
T:HABANERA.
T:Georges Bizet
T:Public Domain
T:Public Domain
C:Georges Bizet
Z:Public Domain
%%score { ( 1 3 ) | 2 }
L:1/8
Q:1/4=72
M:2/4
K:F
V:1 treble nm="Piano" snm="Pno."
V:3 treble 
V:2 bass 
V:1
"^Allegretto   quasi   Andantino."!pp! z4 | z4 | z4 |"^CARMEN." z2 .d.^c | (3.=c.c.c .=B._B | %5
 .A>.A .^G.=G | (3(F/G/F/ E/F/) .G.F | .E z .d.^c | (3.=c.c.c .=B._B | .A>.A .G.F | %10
 (3(E/F/E/ D/E/) .F.E | (D2 .d).^c | (3.=c.c.c .=B._B | .A>.A .^G.=G | (3(F/G/F/ E/F/) .G.F | %15
 .E z .d.^c | (3.=c.c.c .=B._B | .A>.A .G.F | (3(E/F/E/ D/E/) .F.E || %19
[K:D]"^CHŒUR." .[=F,D]!p! z .[d^fd'].[df^c'] | (3.[df=c'].c'.c' .[dfb].[df_b] | %21
 .[dfa]z/(a/ .[Ad^g]).[Ad=g] | (3([Adf]/g/f/e/f/ .[Adg]).[Adf] | .[GBde] z .[degd'].[degc'] | %24
 (3.[deg=c'].c'.c' .[deb].[de^a] | .[de=a]z/(a/ .[Bdg]).[Bdf] | (3([G^ce]/f/e/d/e/ .[Gcf]).[Gce] | %27
 .[Fd]"^CARMEN." z/!p! (A/ .D).[A,E] | .[DF]>(.A .[DF]).[A,E] | .[F,D]>(E .[DF]).[EG] | %30
 .[FA]/.[FA]/.[FA]/.[FA]/ .[GB].[FA] | .[EG] z/ (B/ .E).[B,F] | .[EG]>(B .[EG]).[B,F] | %33
 .[G,E]>(F .[EG]).[FA] | .[GB]/.[GB]/.[GB]/.[GB]/ .[Ac].[GB] | %35
 .[FA]"^CHŒUR." z/!f! (a/ .[dfd']).[eae'] | .[fd'f']"^CARMEN." z/!pp! (A/ .[DF]).[A,E] | %37
 .[F,D]>(E .[DF]).[EG] | .[FA]/.[FA]/.[FA]/.[FA]/ .[Bd].[Ac] | %39
{/c} .[EG] z/!f! (b/ .[ege']).[fd'f'] | .[ge'g'] z/!pp!"^CARMEN." (B/ .[EG]).[B,F] | %41
 .[G,E]>(F"_cresc." .[EG]).[FA] |!mf! (3.[EGc](BA (3G{!fermata!A!fermata!G}!fermata!F3/2E/ | %43
!mf! D)"^CHŒUR." z/ (A/ .[Fd]).[Ae] | .[df]z/([fa]/ .[df]).[Ae] | .[Fd]z/([Ae]/ .[df]).[eg] | %46
 .[fa]/.[fa]/.[fa]/.[fa]/ .[gb].[fa] | .[eg]z/(B/ .[Ge]).[Bf] | .[eg]z/([gb]/ .[eg]).[Bf] | %49
 .[Ge]z/([Bf]/ .[eg]).[fa] | .[gb]/.[gb]/.[gb]/.[gb]/ .[ac'].[gb] | %51
 .[fa] z/!f! (a/ .[dfd']).[eae'] | .[fd'f'] z/!p!"^CARMEN." (A/ [DF][A,E] | [F,D]>[A,E] [DF][EG] | %54
 [FA]/[FA]/[FA]/[FA]/ [Bd][Ac] | [EG])"^CHŒUR." z/ (b/ .[ege']).[fbf'] | %56
 .[ge'g'] z/!p!"^CARMEN." (B/ [EG][B,F] |"_cresc." [G,E]>[B,F] [EG][FA]) | %58
!f! c/B/^G/A/ !fermata!f3/2(3(e/4f/4e/4) | dz/!ff!(a/ [dd']) !fermata!z |] %60
V:2
 .D,,z/(A,,/.F,).A,, | .D,,z/(A,,/.F,).A,, | .D,,z/(A,,/.F,).A,, | .D,,z/(A,,/.F,).A,, | %4
 .D,,z/((A,,/.F,)).A,, | .D,,z/((A,,/.F,)).A,, | .D,,z/(A,,/.F,).A,, | .D,,z/(B,,/.G,).B,, | %8
 .D,,z/((B,,/.G,)).B,, | .D,,z/((B,,/.G,)).B,, | .D,,z/((A,,/.G,)).A,, | .D,,z/((A,,/.F,)).A,, | %12
 .D,,z/(A,,/.F,).A,, | .D,,z/(A,,/.F,).A,, | .D,,z/(A,,/.F,).A,, | .D,,z/(B,,/.G,).B,, | %16
 .D,,z/((B,,/.G,)).B,, | .D,,z/((B,,/.G,)).B,, | .D,,z/(A,,/.G,).A,, ||[K:D] .D,,z/(A,,/.^F,).A,, | %20
 .D,,z/(A,,/.F,).A,, | .D,,z/(A,,/.F,).A,, | .D,,z/(A,,/.F,).A,, | .D,,z/((B,,/.G,)).B,, | %24
 .D,,z/((B,,/.G,)).B,, | .D,,z/((B,,/.G,)).B,, | .D,,z/(A,,/.G,).A,, | .D,,z/(A,,/.F,).A,, | %28
 .D,,z/(A,,/.F,).A,, | .D,,z/(A,,/.F,).A,, | .D,,z/(A,,/.F,).A,, | .D,,z/((B,,/.G,)).B,, | %32
 .D,,z/((B,,/.G,)).B,, | .D,,z/((B,,/.G,)).B,, | .D,,z/(C,/.A,).A,, | .D,,z/(A,,/.F,).A,, | %36
 .D,,z/(A,,/.F,).A,, | .D,,z/(A,,/.F,).A,, | .D,,z/(A,,/.F,).A,, | .D,,z/((B,,/.G,)).B,, | %40
 .D,,z/((B,,/.G,)).B,, | .D,,z/((B,,/.G,)).B,, | .[D,,A,,] z !fermata!z2 | .D,,z/(A,,/.F,).A,, | %44
 .D,,z/(A,,/.F,).A,, | .D,,z/(A,,/.F,).A,, | .D,,z/(A,,/.F,).A,, | .D,,z/((B,,/.G,)).B,, | %48
 .D,,z/((B,,/.G,)).B,, | .D,,z/((B,,/.G,)).B,, | .D,,z/(A,,/.G,).A,, | .D,,z/(A,,/.F,).A,, | %52
 .D,,z/(A,,/.F,).A,, | .D,,z/(A,,/.F,).A,, | .D,,z/(A,,/.F,).A,, | .D,,z/((B,,/.G,)).B,, | %56
 .D,,z/(((B,,/.G,))).B,, | .D,,z/(((B,,/.G,))).B,, | [D,,A,,]2- [D,,A,,] !fermata!z | %59
 [D,F,A,D]z/(A,,/ [D,,D,]) !fermata!z |] %60
V:3
 x4 | x4 | x4 | x2 .[DF].[DF] | .[DF] z .[DF].[DF] | .[DF] z .[A,D].[A,D] | .[A,D] z .[A,D].[A,D] | %7
 .[B,D] z .[DE].[DE] | .[DE] z .[DE].[DE] | .[DE] z .[B,D].[B,D] | .[G,^C] z .C.[G,C] | %11
 .F, z .[DF].[DF] | .[DF] z .[DF].[DF] | .[DF] z .[A,D].[A,D] | .[A,D] z .[A,D].[A,D] | %15
 .[B,D] z .[DE].[DE] | .[DE] z .[DE].[DE] | .[DE] z .[B,D].[B,D] | .[G,^C] z .C.[G,C] ||[K:D] x4 | %20
 x4 | x4 | x4 | x4 | x4 | x4 | x4 | x4 | x4 | x4 | x4 | x4 | x4 | x4 | x4 | x4 | x4 | x4 | x4 | %39
 x4 | x4 | x4 | x4 | x4 | x4 | x4 | x4 | x4 | x4 | x4 | x4 | x4 | x4 | x4 | x4 | x4 | x4 | x4 | %58
 [EG]2 z2 | x4 |] %60

